korla/apps/symbolic/preferences-desktop-locale-symbolic.svg

<svg style="clip-rule:evenodd;fill-rule:evenodd;stroke-linejoin:round;stroke-miterlimit:2" version="1.1" viewBox="0 0 16 16" xmlns="http://www.w3.org/2000/svg">
 <path d="m4.333 12.008 4.091-0.016c-0.01 0.14-0.014 0.308-0.014 0.438h0.43v0.5h-0.5c-0.08 0.7-0.36 1.07-0.84 1.07-0.12 0-0.31-0.02-0.53-0.07l-0.09-0.5c0.26 0.05 0.48 0.07 0.62 0.07s0.21-0.2 0.25-0.57h-2.34c0.04-0.29 0.06-0.62 0.09-0.93h-0.69c-0.23 0.66-0.52 1.34-0.9 1.97l-0.5-0.41c0.32-0.51 0.58-1.03 0.81-1.56l0.113 8e-3zm-2.243-4.288h1.6v4.78h-0.53v-0.53h-0.54v0.78h-0.53v-5.03zm0.53 0.53v3.22h0.54v-3.22h-0.54zm3.47 3.75c-0.02 0.13-0.04 0.3-0.06 0.43h1.78c0.02-0.15 0.02-0.29 0.03-0.43h-0.47l-0.21 0.27c-0.1-0.1-0.21-0.17-0.32-0.27h-0.75z" style="fill-rule:nonzero;fill:rgb(223,223,223)"/>
 <path d="m9.56 2h1.88l2.18 7h-1.65l-0.44-1.66h-2.12l-0.44 1.66h-1.6l2.19-7zm0.88 1.18c-0.17 0.74-0.34 1.58-0.53 2.29l-0.19 0.62h1.5l-0.16-0.62c-0.19-0.71-0.41-1.56-0.59-2.29h-0.03z" style="fill:rgb(223,223,223)"/>
 <g transform="translate(4.61579 -4.52959)">
  <path d="m11.384 7.462c0-1.571-1.275-2.846-2.846-2.846h-5.692c-1.57 0-2.846 1.275-2.846 2.846v5.692c0 1.57 1.276 2.846 2.846 2.846h5.692c1.571 0 2.846-1.276 2.846-2.846v-5.692z" style="fill-opacity:.3;fill:rgb(223,223,223)"/>
 </g>
 <path d="m4.116 4.616v0.799h-1.27c-1.129 0-2.046 0.917-2.046 2.047v5.692c0 1.129 0.917 2.046 2.046 2.046h5.692c1.13 0 2.047-0.917 2.047-2.046v-1.184h0.799v1.184c0 1.57-1.275 2.846-2.846 2.846h-5.692c-1.57 0-2.846-1.276-2.846-2.846v-5.692c0-1.571 1.276-2.846 2.846-2.846h1.27z" style="fill-opacity:.3;fill:rgb(223,223,223)"/>
</svg>

<svg xmlns="http://www.w3.org/2000/svg" width="16" height="16" version="1.1">
 <path style="opacity:0.3;fill:#dfdfdf" d="M 2,5 C 0,5 0,7 0,7 V 14 C 0,15.97 2,16 2,16 H 10 11 V 12 H 8.44 C 8.43,12.14 8.41,12.3 8.41,12.43 H 8.84 V 12.93 H 8.34 C 8.26,13.63 7.98,14 7.5,14 7.38,14 7.19,13.98 6.97,13.93 L 6.88,13.43 C 7.14,13.48 7.36,13.5 7.5,13.5 7.64,13.5 7.71,13.3 7.75,12.93 H 5.41 C 5.45,12.64 5.47,12.31 5.5,12 H 5 4.81 C 4.58,12.66 4.29,13.34 3.91,13.97 L 3.41,13.56 C 3.73,13.05 3.99,12.53 4.22,12 H 4 V 11 9.59 C 3.98,9.58 3.96,9.55 3.94,9.52 L 4,9.47 V 7.68 C 3.98,7.66 3.96,7.63 3.94,7.62 L 4,7.56 V 5 Z M 2.09,7.72 H 3.69 V 12.5 H 3.16 V 11.97 H 2.62 V 12.75 H 2.09 Z M 2.62,8.25 V 11.47 H 3.16 V 8.25 Z M 6.09,12 C 6.07,12.13 6.05,12.3 6.03,12.43 H 7.81 C 7.83,12.28 7.83,12.14 7.84,12 H 7.37 L 7.16,12.27 C 7.06,12.17 6.95,12.1 6.84,12 Z"/>
 <path style="fill:#dfdfdf" d="M 5,0 V 11 H 6 14 C 14,11 16,11 16,9 V 2 C 16,2 16,0 14,0 Z M 9.56,2 H 11.44 L 13.62,9 H 11.97 L 11.53,7.34 H 9.41 L 8.97,9 H 7.37 Z M 10.44,3.18 C 10.27,3.92 10.1,4.76 9.91,5.47 L 9.72,6.09 H 11.22 L 11.06,5.47 C 10.87,4.76 10.65,3.91 10.47,3.18 Z"/>
</svg>
